X:1
T:Invitation (1867)
T:William Walker, 1835 Bb Major     Revised by William Walker, 1867
T:Transcribed from Walker's Christian Harmony, 1867.
T:Joseph Hart, 1759                  
%%score [ 1 2 3 4 ]
L:1/8
Q:1/4=100
M:4/4
K:Bb
V:1 treble nm="Tr." snm="Tr."
V:2 treble nm="A." snm="A."
V:3 treble-8 nm="T." snm="T."
V:4 bass nm="B." snm="B."
V:1
"_Come,  ye  sin–ners, poor  and   nee  –  dy,  Weak and  wounded,  sick  and  sore!   \nJe  – sus   rea – dy stands  to    save   you,    Full  of     pi  –  ty,   love  and  power.""_1.{" B4 d2 c2 | %1
 d4 c4 | B2 c2 d4 | f4 d2 c2 | B4 B3 c |"_}" d8 :| %6
"_He    is       a  –  ble,  he     is       a   –   ble,     He   is   wil – ling, doubt no more!" G4 B2 B2 | %7
 c4 B4 | d2 c2 d4 | G4 B2 B2 | c4 B2 d2 | f8 |] %12
V:2
"_Ho!       ye  nee –dy, come  and  welcome,  God's  free  boun – ty  glo – ri   –  fy.     \nTrue  be – lief,  and  true    re – pen – tance,  Eve – ry  grace  that brings us  nigh.""_2.{" F4 GF G2 | %1
 G4 A4 | B2 F2 D4 | F4 D2 E2 | F4 G3 F |"_}" F8 :| %6
"_Without   mo – ney, Without    mo  – ney,    Come  to  Je – sus  Christ and buy." G4 D2 D2 | %7
 C4 D4 | D2 F2 [DB]4 | G4 G2 G2 | A4 B2 G2 | F8 |] %12
V:3
"_Let  not  conscience  let      you  lin  – ger,   Nor    of    fit  –ness  fond–ly  dream;   \nAll   the    fit  – ness  he     re – qui  – reth     Is     to     feel    your  need  of  him.""_3.{" B4 GF G2 | %1
 B4 c4 | Bd cB G4 | B4 GF G2 | B4 d3 c |"_}" B8 :| %6
"_This  he   gives you, This  he    gives   you,    Tis   the   Spi – rit's  ri –sing beam." e4 dc d2 | %7
 f4 d4 | Bd cB G4 | e4 dc d2 | f4 dc B2 | c8 |] %12
V:4
"_Come  ye   wea – ry,  hea – vy    la   –  den,  Bruised and mangled  by  the  fall;       \nIf     you   tar – ry   till     you're bet  – ter,    You   will   ne – ver   come  at   all.""_4.{""_______________________________________________________\nExtensively revised from the 1835 version.\nWalker's footnote to line 1 of stanza 1:\n    \"William, when you publish your now book, put the words the old way, — 'Poor and needy.' \" \n    (Dying request of my dear mother.)""_5. View Him groveling in the garden, \nLo! your Maker prostrate lies! \nOn the bloody tree behold Him: \nHear Him cry, before He dies: \nIt is finished! It is finished!\nSinner, will this not suffice?" B,4 B,2 G,2 | %1
 G,4 F,4 | D,2 F,2 G,4 | %3
 B,,4 B,,2"_6. Lo! The incarnate God ascended, \nPleads the merit of His blood; \nVenture on Him, venture wholly; \nLet no other trust intrude. \nNone but Jesus, None but Jesus,\nCan do helpless sinners good." C,2 | %4
 [B,,D,]4 D,3 F, |"_}" B,,8 :| %6
"_Not  the  righteous,  Not   the    righteous,     Sin  – ners  Je – sus  came to  call." B,4 G,2 G,2 | %7
 F,4 G,4 | %8
 D,2"_7. Saints and angels, joined in concert, \nSing the praises of the Lamb; \nWhile the blissful seats of heaven \nSweetly echo with His name. \nHallelujah! Hallelujah!\nSinners here may sing the same." F,2 G,4 | %9
 G,4 D,2 D,2 | F,4 G,2 B,2 | F,8 |] %12

